icon-themes/sifr_svg/cmd/sc_crop.svg

<svg viewBox="0 0 16 16" xmlns="http://www.w3.org/2000/svg"><g fill="#555753"><path d="m2 1v2h-2v2h4v-4zm10 0v4h4v-2h-2v-2zm-7 2v1h2v-1zm4 0v1h2v-1zm-7 3v1h1v-1zm11 0v1h1v-1zm-11 3v1h1v-1zm11 0v1h1v-1zm-13 2v2h2v2h2v-4zm12 0v4h2v-2h2v-2zm-7 1v1h2v-1zm4 0v1h2v-1z"/><path d="m11 5a1 1 0 0 0 -1 1 1 1 0 0 0 1 1 1 1 0 0 0 1-1 1 1 0 0 0 -1-1zm-4 2-3 3v1h8v-3l-2 2z" opacity=".35"/></g></svg>

<svg xmlns="http://www.w3.org/2000/svg" viewBox="0 0 16 16">
  <path
     style="fill:#555753"
     d="M 2 1 L 2 3 L 0 3 L 0 5 L 4 5 L 4 1 L 2 1 z M 12 1 L 12 5 L 16 5 L 16 3 L 14 3 L 14 1 L 12 1 z M 5 3 L 5 4 L 7 4 L 7 3 L 5 3 z M 9 3 L 9 4 L 11 4 L 11 3 L 9 3 z M 2 6 L 2 7 L 3 7 L 3 6 L 2 6 z M 13 6 L 13 7 L 14 7 L 14 6 L 13 6 z M 2 9 L 2 10 L 3 10 L 3 9 L 2 9 z M 13 9 L 13 10 L 14 10 L 14 9 L 13 9 z M 0 11 L 0 13 L 2 13 L 2 15 L 4 15 L 4 11 L 0 11 z M 12 11 L 12 15 L 14 15 L 14 13 L 16 13 L 16 11 L 12 11 z M 5 12 L 5 13 L 7 13 L 7 12 L 5 12 z M 9 12 L 9 13 L 11 13 L 11 12 L 9 12 z "
     />
  <path
     style="opacity:0.35;fill:#555753"
     d="M 11 5 A 1 1 0 0 0 10 6 A 1 1 0 0 0 11 7 A 1 1 0 0 0 12 6 A 1 1 0 0 0 11 5 z M 7 7 L 4 10 L 4 11 L 12 11 L 12 8 L 10 10 L 7 7 z "
     />
</svg>
